!!!COM: Palestrina, Giovanni Perluigi da
!!!OPR: Missa Ut re mi fa sol la
!!!OMD: Credo
!!!OTL: Crucifixus
**kern	**kern	**kern	**kern
*Icalto	*Icalto	*Icant	*Icant
!Altus 2	!Altus 1	!Cantus 2	!Cantus 1
*clefG2	*clefG2	*clefG2	*clefG2
*k[]	*k[]	*k[]	*k[]
*C:ion	*C:ion	*C:ion	*C:ion
*M4/2	*M4/2	*M4/2	*M4/2
=73	=73	=73	=73
2r	0r	1a	0r
1g	.	.	.
.	.	1g	.
2f#	.	.	.
=74	=74	=74	=74
1g	0r	1b	0r
2c	.	1cc	.
[2cc	.	.	.
=75	=75	=75	=75
2cc]	0r	1dd	0r
2b	.	.	.
2a	.	1ee	.
2g	.	.	.
=76	=76	=76	=76
4f	0r	1dd	0r
4e	.	.	.
4d	.	.	.
4e	.	.	.
4f	.	1cc	.
4g	.	.	.
[2a	.	.	.
=77	=77	=77	=77
4a]	0r	1b	0r
4g	.	.	.
1g	.	.	.
.	.	1a	.
2f	.	.	.
=78	=78	=78	=78
1e	2r	1g	2r
.	1g	.	2g
1d	.	1r	1a
.	2f#	.	.
=79	=79	=79	=79
2r	1g	0r	1b
1g	.	.	.
.	2c	.	1cc
2e	[2cc	.	.
=80	=80	=80	=80
2f	2cc]	0r	1dd
2g	2b	.	.
4c	2a	.	1ee
4d	.	.	.
4e	2g	.	.
4c	.	.	.
=81	=81	=81	=81
4d	4f	0r	1dd
4e	4e	.	.
4f	4d	.	.
4g	4e	.	.
2a	4f	.	1cc
.	4g	.	.
2f	[2a	.	.
=82	=82	=82	=82
1g	4a]	0r	1b
.	4g	.	.
.	1g	.	.
1d	.	.	1a
.	2f#	.	.
=83	=83	=83	=83
2r	1g	2r	1g
2e	.	2g	.
2f	1r	2a	1r
2g	.	2b	.
=84	=84	=84	=84
2c	2r	1cc	2r
1cc	2e	.	2g
.	2f	1dd	2a
2b	2g	.	2b
=85	=85	=85	=85
2.a	2c	1ee	1cc
.	1cc	.	.
4g	.	.	.
2f	.	[1dd	2r
[2g	[2b	.	[2gg
=86	=86	=86	=86
2g]	2b]	2dd]	2gg]
2a	1a	2cc	2ff
1e	.	1b	1ee
.	2g#	.	.
=87	=87	=87	=87
1A	1a	1a	1cc#
1e	1r	1g	2r
.	.	.	[2ee
=88	=88	=88	=88
1f	2r	1a	2ee]
.	1a	.	2dd
1e	.	1b	[1ee
.	2g#	.	.
=89	=89	=89	=89
1A	2a	1cc	2ee]
.	2a	.	4dd
.	.	.	4cc
2r	2g	1dd	2b
[2a	2f	.	2a
=90	=90	=90	=90
2a]	1e	0ee	2b
2g#	.	.	2b
1a	2r	.	1cc
.	[2a	.	.
=91	=91	=91	=91
1d	2a]	1dd	1ff
.	1b-	.	.
1f	.	[1cc	1ff
.	[2a	.	.
=92	=92	=92	=92
1c	4a]	2cc]	1ee
.	4g	.	.
.	1g	2b	.
1d	.	1a	1dd
.	2f#	.	.
=93	=93	=93	=93
0G	0g	1g	0b
.	.	2r	.
.	.	2g	.
=94	=94	=94	=94
0r	2r	2a	2r
.	2g	2b	2g
.	2f	2cc	2a
.	2d	2dd	2b
=95	=95	=95	=95
0r	2c	2ee	2cc
.	2B	2dd	2dd
.	1c	1cc	1ee
=96	=96	=96	=96
0r	2g	2b	2dd
.	2a	1a	2cc
.	1e	.	1b
.	.	2g#	.
=97	=97	=97	=97
2r	1A	[0a	1a
2c	.	.	.
2d	2r	.	1r
2e	2c	.	.
=98	=98	=98	=98
2f	2d	0a]	1r
2c	2e	.	.
4d	2.f	.	2r
4e	.	.	.
4f	.	.	2cc
4g	4e	.	.
=99	=99	=99	=99
4a	2d	0r	2dd
4b	.	.	.
2cc	2c	.	2ee
2.a	4d	.	1ff
.	4e	.	.
.	4f	.	.
4b	4g	.	.
=100	=100	=100	=100
2cc	4a	0r	1ee
.	4b	.	.
2c	1cc	.	.
[1e	.	.	1dd
.	4b	.	.
.	4a	.	.
=101	=101	=101	=101
1e]	1b	2r	2r
.	.	2g	2gg
1r	1r	2a	2ff
.	.	2b	2dd
=102	=102	=102	=102
1r	0r	2cc	2ee
.	.	2dd	2ff
2r	.	2.ee	2.gg
2G	.	.	.
.	.	4dd	4ff
=103	=103	=103	=103
2A	0r	2cc	4ee
.	.	.	4cc
2B	.	2b	1gg
2c	.	1a	.
2d	.	.	2ff#
=104	=104	=104	=104
4e	2r	1g	1gg
4f	.	.	.
4g	2c	.	.
4e	.	.	.
2f	2d	1r	2r
2e	2e	.	2g
=105	=105	=105	=105
2d	2f	0r	2a
2G	2g	.	2b
2A	2e	.	2cc
2B	[2g	.	2dd
=106	=106	=106	=106
2c	4g]	1r	2ee
.	4a	.	.
2d	2.b	.	1dd
1e	.	1g	.
.	4a	.	.
.	[2g	.	2cc#
=107	=107	=107	=107
1d	2g]	2a	2dd
.	2f#	2b	2dd
2c	1g	2cc	2ee
2B	.	2dd	2dd
=108	=108	=108	=108
2.c	[0g	1.ee	1cc
4d	.	.	.
2e	.	.	1b
2B	.	2dd	.
=109	=109	=109	=109
1c	1g]	1cc	1ee
4G	2r	1b	1dd
4A	.	.	.
4B	2g	.	.
4c	.	.	.
=110	=110	=110	=110
1d	2g	1a	2r
.	2f#	.	2dd
2r	2g	1g	2dd
2g	2e	.	2cc#
=111	=111	=111	=111
2g	2d	1a	1dd
2f#	2d	.	.
2g	1g	1b	2r
2e	.	.	2gg
=112	=112	=112	=112
2a	2r	1cc	2gg
2a	2cc	.	2ff#
1g	2cc	1dd	[1gg
.	2b	.	.
=113	=113	=113	=113
2r	2cc	1ee	1gg]
2cc	2c	.	.
2cc	2g	1dd	1gg
2b	2g	.	.
=114	=114	=114	=114
2cc	1c	1cc	2ee
2c	.	.	2ee
2g	2r	1b	1dd
2g	2g	.	.
=115	=115	=115	=115
1d	2g	1a	2r
.	2f#	.	2dd
2r	2g	1g	2dd
2g	2e	.	2cc#
=116	=116	=116	=116
2g	2d	1a	1.dd
2f#	2d	.	.
2g	1g	1b	.
2e	.	.	2gg
=117	=117	=117	=117
1a	2r	1cc	2ee
.	1cc	.	2ff#
1g	.	1dd	1gg
.	2b	.	.
=118	=118	=118	=118
2c	2g	1ee	1r
1cc	2a	.	.
.	2f	1dd	2r
2b	2g	.	[2gg
=119	=119	=119	=119
2g	2e	1cc	2gg]
2.a	2f	.	2ff
.	1g	1b	2dd
4g	.	.	.
[2g	.	.	[2ee
=120	=120	=120	=120
2g]	1d	1a	4ee]
.	.	.	4dd
2f#	.	.	1dd
2g	2e	1g	.
2e	[2g	.	2cc#
=121	=121	=121	=121
0d	2g]	0a	[0dd
.	4f	.	.
.	4e	.	.
.	1f#	.	.
=122	=122	=122	=122
0G	0g	1b	1dd]
.	.	2r	2.g
.	.	[2g	.
.	.	.	4a
=123	=123	=123	=123
0r	0r	2g]	2b
.	.	2a	2cc
.	.	2b	2dd
.	.	2cc	2ee
=124	=124	=124	=124
2r	0r	2dd	2b
1c	.	1ee	1cc
2d	.	2dd	4b
.	.	.	4a
=125	=125	=125	=125
2e	0r	0cc	2g
2f	.	.	2a
2g	.	.	2e
[2a	.	.	2f
=126	=126	=126	=126
2a]	0r	1b	1g
1g	.	.	.
.	.	1a	1d
2f#	.	.	.
=127	=127	=127	=127
2.g	2r	1g	1.dd
.	1G	.	.
4a	.	.	.
2b	.	1r	.
[2a	2A	.	2cc
=128	=128	=128	=128
4a]	2B	0r	1b
4g	.	.	.
1g	2c	.	.
.	1d	.	1a
2f#	.	.	.
=129	=129	=129	=129
1g	1e	2r	1g
.	.	1g	.
1e	2c	.	1r
.	2c	2a	.
=130	=130	=130	=130
0r	2d	2b	2r
.	2e	2cc	2g
.	2f	1dd	2a
.	2g	.	2b
=131	=131	=131	=131
1r	4c	1ee	1cc
.	4c	.	.
.	1cc	.	.
2r	.	[1dd	2.g
[2G	[2b	.	.
.	.	.	4a
=132	=132	=132	=132
2G]	2b]	2dd]	2b
2A	2.a	2cc	2cc
2B	.	1b	2dd
.	4g	.	.
2c	[2g	.	2ee
=133	=133	=133	=133
0d	2g]	0a	0dd
.	4f	.	.
.	4e	.	.
.	1f#	.	.
=134	=134	=134	=134
1e	2.g	[0g	2b
.	.	.	2b
.	4f	.	.
2c	2e	.	2cc
[2g	2B	.	2dd
=135	=135	=135	=135
4g]	0c	0g]	4ee
4f	.	.	4dd
4e	.	.	4cc
4d	.	.	4b
1e	.	.	1cc
=136	=136	=136	=136
[0d	[0G	[0g	[0b
=137	=137	=137	=137
0d]	0G]	0g]	0b]
*-	*-	*-	*-
!!!CDT: 1525/^1526/-1594/2/2
!!!OCY: Italia
!!!AGN: Mass (Tenor)
!!!AST: renaissance, vocal
!!!ASW: Antiphon
!!!PWK: Masses, Book 3
!!!RNB: Cadence finals: G
!!!YOR: Le Opere Complete, v. 6, p. 216
!!!YOO: Rome, Italy: Fratelli Scalera
!!!END: 1992//
!!!EED: John Miller
!!!YEC: Copyright 2000, John Miller
!!!YEN: United States of America
!!!YEM: Rights to all derivative electronic formats reserved.
!!!YEM: Refer to licensing agreement for further details.
!!!YEM: This file must be accompanied by the licensing agreement.
!!!YEM: A copy of the licensing agreement may be found at http://www.music-cog.ohio-state.edu/HumdrumDatabases/Palestrina/license.txt
!!!EMD: converted to Humdrum by Bret Aarden
